X:113
T: Thro the Wood Laddie
N: O'Farrell's Pocket Companion v.2 (Sky ed. p.62)
N: "Scotch"
M: 3/4
L: 1/8
Q: 120 % "slow"
K: G
G>D|E2 G>A AG/A/|B4 g>d|e2 gedB|A4 GA|
B3 cBA|B2 AG G>A|B>A BdBA|B2 AGG>D|
E2 G>A AG/A/|B4 ga|bag edB|{B}A4 Bd|
e2 gedB |d>ed cBA|B2 E2 F2|{EF} G4 ||
g>d|e2 g>a ag/a/| b4 g>a|b2 c'bag|a4 g>a|
b3 c'ba|b2 agga|bab c'ba|b2 agg>d|
e2 g>a ag/a/|b4 g>a|bag edB|{B}A4 Bc|
e2 gedB|d>ed cBA|B2 E2 F2 |{F} G4||
